;FLAVOR:Marlin
;TIME:2577
;Filament used: 1.20971m
;Layer height: 0.2
;MINX:69.322
;MINY:81.927
;MINZ:0.2
;MAXX:165.925
;MAXY:152.897
;MAXZ:6
;Generated with Cura_SteamEngine 4.6.1
G1 X71.422 Y89.822
G1 X80.985 Y85.04 
G1 X81.495 Y84.83 
G1 X82.029 Y84.696 
G1 X83.128 Y84.665 
G1 X83.669 Y84.769
G1 X84.19 Y84.95 
G1 X84.678 Y85.203 
G1 X84.868 Y85.32 
G1 X85.315 Y85.642 
G1 X85.71 Y86.026 
G1 X86.046 Y86.463 
G1 X86.295 Y86.906
G1 X86.295 Y85.845
G1 X86.335 Y85.295
G1 X86.454 Y84.757
G1 X86.65 Y84.242
G1 X86.918 Y83.761
G1 X87.252 Y83.323
G1 X87.647 Y82.939
G1 X71.422 Y89.822
G1 X80.985 Y85.04 
G1 X81.495 Y84.83 
G1 X82.029 Y84.696 
G1 X83.128 Y84.665 
G1 X83.669 Y84.769

;FLAVOR:Marlin
;TIME:2577
;Filament used: 1.20971m
;Layer height: 0.2
;MINX:69.322
;MINY:81.927
;MINZ:0.2
;MAXX:165.925
;MAXY:152.897
;MAXZ:6
;Generated with Cura_SteamEngine 4.6.1